images/3233301.svg

<?xml version="1.0" encoding="UTF-8"?>
<svg xmlns="http://www.w3.org/2000/svg" xmlns:xlink="http://www.w3.org/1999/xlink" width="300pt" height="300pt" viewBox="0 0 300 300" version="1.1">
<defs>
<g>
<symbol overflow="visible" id="glyph0-0">
<path style="stroke:none;" d="M 0.453125 1.59375 L 0.453125 -6.34375 L 4.953125 -6.34375 L 4.953125 1.59375 Z M 0.953125 1.09375 L 4.453125 1.09375 L 4.453125 -5.84375 L 0.953125 -5.84375 Z M 0.953125 1.09375 "/>
</symbol>
<symbol overflow="visible" id="glyph0-1">
<path style="stroke:none;" d="M 0.890625 -6.5625 L 2.078125 -6.5625 L 4.984375 -1.078125 L 4.984375 -6.5625 L 5.84375 -6.5625 L 5.84375 0 L 4.65625 0 L 1.75 -5.484375 L 1.75 0 L 0.890625 0 Z M 0.890625 -6.5625 "/>
</symbol>
<symbol overflow="visible" id="glyph0-2">
<path style="stroke:none;" d="M 3.546875 -5.953125 C 2.898438 -5.953125 2.382812 -5.710938 2 -5.234375 C 1.625 -4.753906 1.4375 -4.101562 1.4375 -3.28125 C 1.4375 -2.445312 1.625 -1.789062 2 -1.3125 C 2.382812 -0.832031 2.898438 -0.59375 3.546875 -0.59375 C 4.191406 -0.59375 4.703125 -0.832031 5.078125 -1.3125 C 5.453125 -1.789062 5.640625 -2.445312 5.640625 -3.28125 C 5.640625 -4.101562 5.453125 -4.753906 5.078125 -5.234375 C 4.703125 -5.710938 4.191406 -5.953125 3.546875 -5.953125 Z M 3.546875 -6.6875 C 4.460938 -6.6875 5.195312 -6.375 5.75 -5.75 C 6.300781 -5.132812 6.578125 -4.3125 6.578125 -3.28125 C 6.578125 -2.238281 6.300781 -1.410156 5.75 -0.796875 C 5.195312 -0.179688 4.460938 0.125 3.546875 0.125 C 2.617188 0.125 1.878906 -0.179688 1.328125 -0.796875 C 0.773438 -1.410156 0.5 -2.238281 0.5 -3.28125 C 0.5 -4.3125 0.773438 -5.132812 1.328125 -5.75 C 1.878906 -6.375 2.617188 -6.6875 3.546875 -6.6875 Z M 3.546875 -6.6875 "/>
</symbol>
</g>
</defs>
<g id="surface28645">
<rect x="0" y="0" width="300" height="300" style="fill:rgb(100%,100%,100%);fill-opacity:1;stroke:none;"/>
<path style="fill:none;stroke-width:1.2;stroke-linecap:butt;stroke-linejoin:miter;stroke:rgb(0%,0%,0%);stroke-opacity:1;stroke-miterlimit:10;" d="M 173.285156 177.859375 L 166.511719 170.523438 "/>
<path style="fill:none;stroke-width:1.2;stroke-linecap:butt;stroke-linejoin:miter;stroke:rgb(0%,0%,100%);stroke-opacity:1;stroke-miterlimit:10;" d="M 166.511719 170.523438 L 159.738281 163.1875 "/>
<path style="fill:none;stroke-width:1.2;stroke-linecap:butt;stroke-linejoin:miter;stroke:rgb(0%,0%,100%);stroke-opacity:1;stroke-miterlimit:10;" d="M 159.738281 163.1875 L 162.707031 153.65625 "/>
<path style="fill:none;stroke-width:1.2;stroke-linecap:butt;stroke-linejoin:miter;stroke:rgb(0%,0%,0%);stroke-opacity:1;stroke-miterlimit:10;" d="M 162.707031 153.65625 L 165.671875 144.121094 "/>
<path style="fill:none;stroke-width:1.2;stroke-linecap:butt;stroke-linejoin:miter;stroke:rgb(0%,0%,0%);stroke-opacity:1;stroke-miterlimit:10;" d="M 140.261719 167.585938 L 150 165.386719 "/>
<path style="fill:none;stroke-width:1.2;stroke-linecap:butt;stroke-linejoin:miter;stroke:rgb(0%,0%,100%);stroke-opacity:1;stroke-miterlimit:10;" d="M 150 165.386719 L 159.738281 163.1875 "/>
<path style=" stroke:none;fill-rule:nonzero;fill:rgb(100%,100%,100%);fill-opacity:1;" d="M 156.738281 157.6875 L 163.738281 157.6875 L 163.738281 168.6875 L 156.738281 168.6875 Z M 156.738281 157.6875 "/>
<g style="fill:rgb(0%,0%,100%);fill-opacity:1;">
  <use xlink:href="#glyph0-1" x="156.738281" y="166.350586"/>
</g>
<path style="fill:none;stroke-width:1.2;stroke-linecap:butt;stroke-linejoin:miter;stroke:rgb(0%,0%,0%);stroke-opacity:1;stroke-miterlimit:10;" d="M 165.671875 144.121094 L 175.410156 141.921875 "/>
<path style="fill:none;stroke-width:1.2;stroke-linecap:butt;stroke-linejoin:miter;stroke:rgb(0%,0%,100%);stroke-opacity:1;stroke-miterlimit:10;" d="M 175.410156 141.921875 L 185.152344 139.726562 "/>
<path style="fill:none;stroke-width:1.2;stroke-linecap:butt;stroke-linejoin:miter;stroke:rgb(0%,0%,0%);stroke-opacity:1;stroke-miterlimit:10;" d="M 166.585938 139.097656 L 174.378906 137.339844 "/>
<path style="fill:none;stroke-width:1.2;stroke-linecap:butt;stroke-linejoin:miter;stroke:rgb(0%,0%,100%);stroke-opacity:1;stroke-miterlimit:10;" d="M 174.378906 137.339844 L 182.167969 135.582031 "/>
<path style="fill:none;stroke-width:1.2;stroke-linecap:butt;stroke-linejoin:miter;stroke:rgb(0%,0%,0%);stroke-opacity:1;stroke-miterlimit:10;" d="M 152.125 129.449219 L 165.671875 144.121094 "/>
<path style="fill:none;stroke-width:1.2;stroke-linecap:butt;stroke-linejoin:miter;stroke:rgb(0%,0%,100%);stroke-opacity:1;stroke-miterlimit:10;" d="M 185.152344 139.726562 L 188.117188 130.191406 "/>
<path style="fill:none;stroke-width:1.2;stroke-linecap:butt;stroke-linejoin:miter;stroke:rgb(0%,0%,0%);stroke-opacity:1;stroke-miterlimit:10;" d="M 188.117188 130.191406 L 191.082031 120.65625 "/>
<path style=" stroke:none;fill-rule:nonzero;fill:rgb(100%,100%,100%);fill-opacity:1;" d="M 182.152344 134.226562 L 189.152344 134.226562 L 189.152344 145.226562 L 182.152344 145.226562 Z M 182.152344 134.226562 "/>
<g style="fill:rgb(0%,0%,100%);fill-opacity:1;">
  <use xlink:href="#glyph0-1" x="182.152344" y="142.889648"/>
</g>
<path style="fill:none;stroke-width:1.2;stroke-linecap:butt;stroke-linejoin:miter;stroke:rgb(0%,0%,0%);stroke-opacity:1;stroke-miterlimit:10;" d="M 191.082031 120.65625 L 184.308594 113.320312 "/>
<path style="fill:none;stroke-width:1.2;stroke-linecap:butt;stroke-linejoin:miter;stroke:rgb(0%,0%,100%);stroke-opacity:1;stroke-miterlimit:10;" d="M 184.308594 113.320312 L 177.535156 105.984375 "/>
<path style="fill:none;stroke-width:1.2;stroke-linecap:butt;stroke-linejoin:miter;stroke:rgb(0%,0%,0%);stroke-opacity:1;stroke-miterlimit:10;" d="M 186.277344 122.378906 L 180.859375 116.507812 "/>
<path style="fill:none;stroke-width:1.2;stroke-linecap:butt;stroke-linejoin:miter;stroke:rgb(0%,0%,100%);stroke-opacity:1;stroke-miterlimit:10;" d="M 180.859375 116.507812 L 175.4375 110.640625 "/>
<path style="fill:none;stroke-width:1.2;stroke-linecap:butt;stroke-linejoin:miter;stroke:rgb(0%,0%,0%);stroke-opacity:1;stroke-miterlimit:10;" d="M 191.082031 120.65625 L 200.824219 118.460938 "/>
<path style="fill:none;stroke-width:1.2;stroke-linecap:butt;stroke-linejoin:miter;stroke:rgb(100%,0%,0%);stroke-opacity:1;stroke-miterlimit:10;" d="M 200.824219 118.460938 L 210.5625 116.261719 "/>
<path style="fill:none;stroke-width:1.2;stroke-linecap:butt;stroke-linejoin:miter;stroke:rgb(0%,0%,100%);stroke-opacity:1;stroke-miterlimit:10;" d="M 177.535156 105.984375 L 167.796875 108.183594 "/>
<path style="fill:none;stroke-width:1.2;stroke-linecap:butt;stroke-linejoin:miter;stroke:rgb(0%,0%,0%);stroke-opacity:1;stroke-miterlimit:10;" d="M 167.796875 108.183594 L 158.058594 110.382812 "/>
<path style=" stroke:none;fill-rule:nonzero;fill:rgb(100%,100%,100%);fill-opacity:1;" d="M 174.535156 100.484375 L 181.535156 100.484375 L 181.535156 111.484375 L 174.535156 111.484375 Z M 174.535156 100.484375 "/>
<g style="fill:rgb(0%,0%,100%);fill-opacity:1;">
  <use xlink:href="#glyph0-1" x="174.535156" y="109.147461"/>
</g>
<path style="fill:none;stroke-width:1.2;stroke-linecap:butt;stroke-linejoin:miter;stroke:rgb(0%,0%,0%);stroke-opacity:1;stroke-miterlimit:10;" d="M 158.058594 110.382812 L 152.125 129.449219 "/>
<path style="fill:none;stroke-width:1.2;stroke-linecap:butt;stroke-linejoin:miter;stroke:rgb(0%,0%,0%);stroke-opacity:1;stroke-miterlimit:10;" d="M 161.949219 113.683594 L 157.203125 128.9375 "/>
<path style="fill:none;stroke-width:1.2;stroke-linecap:butt;stroke-linejoin:miter;stroke:rgb(0%,0%,0%);stroke-opacity:1;stroke-miterlimit:10;" d="M 152.125 129.449219 L 142.386719 131.648438 "/>
<path style="fill:none;stroke-width:1.2;stroke-linecap:butt;stroke-linejoin:miter;stroke:rgb(0%,0%,100%);stroke-opacity:1;stroke-miterlimit:10;" d="M 142.386719 131.648438 L 132.644531 133.847656 "/>
<path style="fill:none;stroke-width:1.2;stroke-linecap:butt;stroke-linejoin:miter;stroke:rgb(0%,0%,100%);stroke-opacity:1;stroke-miterlimit:10;" d="M 132.644531 133.847656 L 129.679688 143.378906 "/>
<path style="fill:none;stroke-width:1.2;stroke-linecap:butt;stroke-linejoin:miter;stroke:rgb(0%,0%,0%);stroke-opacity:1;stroke-miterlimit:10;" d="M 129.679688 143.378906 L 126.714844 152.914062 "/>
<path style="fill:none;stroke-width:1.2;stroke-linecap:butt;stroke-linejoin:miter;stroke:rgb(0%,0%,100%);stroke-opacity:1;stroke-miterlimit:10;" d="M 136.539062 137.148438 L 134.167969 144.777344 "/>
<path style="fill:none;stroke-width:1.2;stroke-linecap:butt;stroke-linejoin:miter;stroke:rgb(0%,0%,0%);stroke-opacity:1;stroke-miterlimit:10;" d="M 134.167969 144.777344 L 131.792969 152.402344 "/>
<path style=" stroke:none;fill-rule:nonzero;fill:rgb(100%,100%,100%);fill-opacity:1;" d="M 129.644531 128.347656 L 136.644531 128.347656 L 136.644531 139.347656 L 129.644531 139.347656 Z M 129.644531 128.347656 "/>
<g style="fill:rgb(0%,0%,100%);fill-opacity:1;">
  <use xlink:href="#glyph0-1" x="129.644531" y="137.010742"/>
</g>
<path style="fill:none;stroke-width:1.2;stroke-linecap:butt;stroke-linejoin:miter;stroke:rgb(0%,0%,0%);stroke-opacity:1;stroke-miterlimit:10;" d="M 126.714844 152.914062 L 140.261719 167.585938 "/>
<path style="fill:none;stroke-width:1.2;stroke-linecap:butt;stroke-linejoin:miter;stroke:rgb(0%,0%,0%);stroke-opacity:1;stroke-miterlimit:10;" d="M 126.714844 152.914062 L 107.234375 157.308594 "/>
<path style="fill:none;stroke-width:1.2;stroke-linecap:butt;stroke-linejoin:miter;stroke:rgb(0%,0%,0%);stroke-opacity:1;stroke-miterlimit:10;" d="M 138.015625 166.886719 L 135.050781 176.421875 "/>
<path style="fill:none;stroke-width:1.2;stroke-linecap:butt;stroke-linejoin:miter;stroke:rgb(100%,0%,0%);stroke-opacity:1;stroke-miterlimit:10;" d="M 135.050781 176.421875 L 132.085938 185.953125 "/>
<path style="fill:none;stroke-width:1.2;stroke-linecap:butt;stroke-linejoin:miter;stroke:rgb(0%,0%,0%);stroke-opacity:1;stroke-miterlimit:10;" d="M 142.503906 168.28125 L 139.539062 177.816406 "/>
<path style="fill:none;stroke-width:1.2;stroke-linecap:butt;stroke-linejoin:miter;stroke:rgb(100%,0%,0%);stroke-opacity:1;stroke-miterlimit:10;" d="M 139.539062 177.816406 L 136.570312 187.351562 "/>
<path style=" stroke:none;fill-rule:nonzero;fill:rgb(100%,100%,100%);fill-opacity:1;" d="M 126.328125 181.152344 L 134.328125 181.152344 L 134.328125 192.152344 L 126.328125 192.152344 Z M 126.328125 181.152344 "/>
<g style="fill:rgb(100%,0%,0%);fill-opacity:1;">
  <use xlink:href="#glyph0-2" x="126.328125" y="189.81543"/>
</g>
<path style="fill:none;stroke-width:1.2;stroke-linecap:butt;stroke-linejoin:miter;stroke:rgb(0%,0%,0%);stroke-opacity:1;stroke-miterlimit:10;" d="M 107.234375 157.308594 L 93.6875 142.636719 "/>
<path style="fill:none;stroke-width:1.2;stroke-linecap:butt;stroke-linejoin:miter;stroke:rgb(0%,0%,0%);stroke-opacity:1;stroke-miterlimit:10;" d="M 93.6875 142.636719 L 74.207031 147.035156 "/>
<path style="fill:none;stroke-width:1.2;stroke-linecap:butt;stroke-linejoin:miter;stroke:rgb(0%,0%,0%);stroke-opacity:1;stroke-miterlimit:10;" d="M 74.207031 147.035156 L 60.660156 132.363281 "/>
<path style="fill:none;stroke-width:1.2;stroke-linecap:butt;stroke-linejoin:miter;stroke:rgb(0%,0%,0%);stroke-opacity:1;stroke-miterlimit:10;" d="M 69.402344 148.753906 L 58.5625 137.019531 "/>
<path style="fill:none;stroke-width:1.2;stroke-linecap:butt;stroke-linejoin:miter;stroke:rgb(0%,0%,0%);stroke-opacity:1;stroke-miterlimit:10;" d="M 68.277344 166.101562 L 74.207031 147.035156 "/>
<path style="fill:none;stroke-width:1.2;stroke-linecap:butt;stroke-linejoin:miter;stroke:rgb(0%,0%,0%);stroke-opacity:1;stroke-miterlimit:10;" d="M 60.660156 132.363281 L 41.183594 136.757812 "/>
<path style="fill:none;stroke-width:1.2;stroke-linecap:butt;stroke-linejoin:miter;stroke:rgb(0%,0%,0%);stroke-opacity:1;stroke-miterlimit:10;" d="M 41.183594 136.757812 L 35.25 155.828125 "/>
<path style="fill:none;stroke-width:1.2;stroke-linecap:butt;stroke-linejoin:miter;stroke:rgb(0%,0%,0%);stroke-opacity:1;stroke-miterlimit:10;" d="M 45.074219 140.0625 L 40.328125 155.316406 "/>
<path style="fill:none;stroke-width:1.2;stroke-linecap:butt;stroke-linejoin:miter;stroke:rgb(0%,0%,0%);stroke-opacity:1;stroke-miterlimit:10;" d="M 35.25 155.828125 L 48.796875 170.5 "/>
<path style="fill:none;stroke-width:1.2;stroke-linecap:butt;stroke-linejoin:miter;stroke:rgb(0%,0%,0%);stroke-opacity:1;stroke-miterlimit:10;" d="M 48.796875 170.5 L 68.277344 166.101562 "/>
<path style="fill:none;stroke-width:1.2;stroke-linecap:butt;stroke-linejoin:miter;stroke:rgb(0%,0%,0%);stroke-opacity:1;stroke-miterlimit:10;" d="M 49.710938 165.476562 L 65.292969 161.957031 "/>
<path style="fill:none;stroke-width:1.2;stroke-linecap:butt;stroke-linejoin:miter;stroke:rgb(100%,0%,0%);stroke-opacity:1;stroke-miterlimit:10;" d="M 210.5625 116.261719 L 217.335938 123.597656 "/>
<path style="fill:none;stroke-width:1.2;stroke-linecap:butt;stroke-linejoin:miter;stroke:rgb(0%,0%,0%);stroke-opacity:1;stroke-miterlimit:10;" d="M 217.335938 123.597656 L 224.109375 130.933594 "/>
<path style=" stroke:none;fill-rule:nonzero;fill:rgb(100%,100%,100%);fill-opacity:1;" d="M 206.5625 110.761719 L 214.5625 110.761719 L 214.5625 121.761719 L 206.5625 121.761719 Z M 206.5625 110.761719 "/>
<g style="fill:rgb(100%,0%,0%);fill-opacity:1;">
  <use xlink:href="#glyph0-2" x="206.5625" y="119.424805"/>
</g>
<path style="fill:none;stroke-width:1.2;stroke-linecap:butt;stroke-linejoin:miter;stroke:rgb(0%,0%,0%);stroke-opacity:1;stroke-miterlimit:10;" d="M 224.109375 130.933594 L 218.175781 150 "/>
<path style="fill:none;stroke-width:1.2;stroke-linecap:butt;stroke-linejoin:miter;stroke:rgb(0%,0%,0%);stroke-opacity:1;stroke-miterlimit:10;" d="M 228.003906 134.234375 L 223.257812 149.488281 "/>
<path style="fill:none;stroke-width:1.2;stroke-linecap:butt;stroke-linejoin:miter;stroke:rgb(0%,0%,0%);stroke-opacity:1;stroke-miterlimit:10;" d="M 243.589844 126.535156 L 224.109375 130.933594 "/>
<path style="fill:none;stroke-width:1.2;stroke-linecap:butt;stroke-linejoin:miter;stroke:rgb(0%,0%,0%);stroke-opacity:1;stroke-miterlimit:10;" d="M 218.175781 150 L 231.722656 164.671875 "/>
<path style="fill:none;stroke-width:1.2;stroke-linecap:butt;stroke-linejoin:miter;stroke:rgb(0%,0%,0%);stroke-opacity:1;stroke-miterlimit:10;" d="M 231.722656 164.671875 L 251.203125 160.273438 "/>
<path style="fill:none;stroke-width:1.2;stroke-linecap:butt;stroke-linejoin:miter;stroke:rgb(0%,0%,0%);stroke-opacity:1;stroke-miterlimit:10;" d="M 232.636719 159.648438 L 248.222656 156.132812 "/>
<path style="fill:none;stroke-width:1.2;stroke-linecap:butt;stroke-linejoin:miter;stroke:rgb(0%,0%,0%);stroke-opacity:1;stroke-miterlimit:10;" d="M 251.203125 160.273438 L 257.136719 141.207031 "/>
<path style="fill:none;stroke-width:1.2;stroke-linecap:butt;stroke-linejoin:miter;stroke:rgb(0%,0%,0%);stroke-opacity:1;stroke-miterlimit:10;" d="M 251.203125 160.273438 L 257.976562 167.609375 "/>
<path style="fill:none;stroke-width:1.2;stroke-linecap:butt;stroke-linejoin:miter;stroke:rgb(100%,0%,0%);stroke-opacity:1;stroke-miterlimit:10;" d="M 257.976562 167.609375 L 264.75 174.945312 "/>
<path style="fill:none;stroke-width:1.2;stroke-linecap:butt;stroke-linejoin:miter;stroke:rgb(0%,0%,0%);stroke-opacity:1;stroke-miterlimit:10;" d="M 257.136719 141.207031 L 243.589844 126.535156 "/>
<path style="fill:none;stroke-width:1.2;stroke-linecap:butt;stroke-linejoin:miter;stroke:rgb(0%,0%,0%);stroke-opacity:1;stroke-miterlimit:10;" d="M 252.328125 142.929688 L 241.492188 131.191406 "/>
<path style="fill:none;stroke-width:1.2;stroke-linecap:butt;stroke-linejoin:miter;stroke:rgb(100%,0%,0%);stroke-opacity:1;stroke-miterlimit:10;" d="M 264.75 174.945312 L 261.785156 184.480469 "/>
<path style="fill:none;stroke-width:1.2;stroke-linecap:butt;stroke-linejoin:miter;stroke:rgb(0%,0%,0%);stroke-opacity:1;stroke-miterlimit:10;" d="M 261.785156 184.480469 L 258.816406 194.015625 "/>
<path style=" stroke:none;fill-rule:nonzero;fill:rgb(100%,100%,100%);fill-opacity:1;" d="M 260.75 169.445312 L 268.75 169.445312 L 268.75 180.445312 L 260.75 180.445312 Z M 260.75 169.445312 "/>
<g style="fill:rgb(100%,0%,0%);fill-opacity:1;">
  <use xlink:href="#glyph0-2" x="260.75" y="178.108398"/>
</g>
</g>
</svg>

<svg xmlns="http://www.w3.org/2000/svg" xmlns:xlink="http://www.w3.org/1999/xlink" width="300pt" height="300pt" viewBox="0 0 300 300"><defs><symbol overflow="visible"><path d="M.453 1.594v-7.938h4.5v7.938zm.5-.5h3.5v-6.938h-3.5zm0 0"/></symbol><symbol overflow="visible" id="a"><path d="M.89-6.563H2.08l2.906 5.485v-5.484h.86V0H4.656L1.75-5.484V0H.89zm0 0"/></symbol><symbol overflow="visible" id="b"><path d="M3.547-5.953c-.65 0-1.164.242-1.547.72-.375.48-.563 1.13-.563 1.952 0 .835.188 1.49.563 1.967.383.48.898.72 1.547.72.644 0 1.156-.24 1.53-.72.376-.476.564-1.132.564-1.968 0-.822-.187-1.474-.562-1.954-.375-.477-.887-.72-1.53-.72zm0-.734c.914 0 1.648.312 2.203.937.55.617.828 1.438.828 2.47 0 1.042-.277 1.87-.828 2.483-.555.617-1.29.922-2.203.922-.93 0-1.668-.305-2.22-.922C.774-1.41.5-2.237.5-3.28c0-1.033.273-1.853.828-2.47.55-.625 1.29-.938 2.22-.938zm0 0"/></symbol></defs><g><path fill="#fff" d="M0 0h300v300H0z"/><path d="M173.285 177.86l-6.773-7.337" stroke-width="1.2" stroke="#000" stroke-miterlimit="10" fill="none"/><path d="M166.512 170.523l-6.774-7.335M159.738 163.188l2.97-9.532" stroke-width="1.2" stroke="#00f" stroke-miterlimit="10" fill="none"/><path d="M162.707 153.656l2.965-9.535M140.262 167.586l9.738-2.2" stroke-width="1.2" stroke="#000" stroke-miterlimit="10" fill="none"/><path d="M150 165.387l9.738-2.2" stroke-width="1.2" stroke="#00f" stroke-miterlimit="10" fill="none"/><path d="M156.738 157.688h7v11h-7zm0 0" fill="#fff"/><use xlink:href="#a" x="156.738" y="166.351" fill="#00f"/><path d="M165.672 144.12l9.738-2.198" stroke-width="1.2" stroke="#000" stroke-miterlimit="10" fill="none"/><path d="M175.41 141.922l9.742-2.195" stroke-width="1.2" stroke="#00f" stroke-miterlimit="10" fill="none"/><path d="M166.586 139.098l7.793-1.758" stroke-width="1.2" stroke="#000" stroke-miterlimit="10" fill="none"/><path d="M174.38 137.34l7.788-1.758" stroke-width="1.2" stroke="#00f" stroke-miterlimit="10" fill="none"/><path d="M152.125 129.45l13.547 14.67" stroke-width="1.2" stroke="#000" stroke-miterlimit="10" fill="none"/><path d="M185.152 139.727l2.965-9.536" stroke-width="1.2" stroke="#00f" stroke-miterlimit="10" fill="none"/><path d="M188.117 130.19l2.965-9.534" stroke-width="1.2" stroke="#000" stroke-miterlimit="10" fill="none"/><path d="M182.152 134.227h7v11h-7zm0 0" fill="#fff"/><use xlink:href="#a" x="182.152" y="142.89" fill="#00f"/><path d="M191.082 120.656l-6.773-7.336" stroke-width="1.2" stroke="#000" stroke-miterlimit="10" fill="none"/><path d="M184.31 113.32l-6.775-7.336" stroke-width="1.2" stroke="#00f" stroke-miterlimit="10" fill="none"/><path d="M186.277 122.38l-5.418-5.872" stroke-width="1.2" stroke="#000" stroke-miterlimit="10" fill="none"/><path d="M180.86 116.508l-5.423-5.867" stroke-width="1.2" stroke="#00f" stroke-miterlimit="10" fill="none"/><path d="M191.082 120.656l9.742-2.195" stroke-width="1.2" stroke="#000" stroke-miterlimit="10" fill="none"/><path d="M200.824 118.46l9.738-2.198" stroke-width="1.2" stroke="#f00" stroke-miterlimit="10" fill="none"/><path d="M177.535 105.984l-9.738 2.2" stroke-width="1.2" stroke="#00f" stroke-miterlimit="10" fill="none"/><path d="M167.797 108.184l-9.738 2.2" stroke-width="1.2" stroke="#000" stroke-miterlimit="10" fill="none"/><path d="M174.535 100.484h7v11h-7zm0 0" fill="#fff"/><use xlink:href="#a" x="174.535" y="109.147" fill="#00f"/><path d="M158.06 110.383l-5.935 19.066M161.95 113.684l-4.747 15.254M152.125 129.45l-9.738 2.198" stroke-width="1.2" stroke="#000" stroke-miterlimit="10" fill="none"/><path d="M142.387 131.648l-9.742 2.2M132.645 133.848l-2.965 9.53" stroke-width="1.2" stroke="#00f" stroke-miterlimit="10" fill="none"/><path d="M129.68 143.38l-2.965 9.534" stroke-width="1.2" stroke="#000" stroke-miterlimit="10" fill="none"/><path d="M136.54 137.148l-2.372 7.63" stroke-width="1.2" stroke="#00f" stroke-miterlimit="10" fill="none"/><path d="M134.168 144.777l-2.375 7.625" stroke-width="1.2" stroke="#000" stroke-miterlimit="10" fill="none"/><path d="M129.645 128.348h7v11h-7zm0 0" fill="#fff"/><use xlink:href="#a" x="129.645" y="137.011" fill="#00f"/><path d="M126.715 152.914l13.547 14.672M126.715 152.914l-19.48 4.395M138.016 166.887l-2.965 9.535" stroke-width="1.2" stroke="#000" stroke-miterlimit="10" fill="none"/><path d="M135.05 176.422l-2.964 9.53" stroke-width="1.2" stroke="#f00" stroke-miterlimit="10" fill="none"/><path d="M142.504 168.28l-2.965 9.536" stroke-width="1.2" stroke="#000" stroke-miterlimit="10" fill="none"/><path d="M139.54 177.816l-2.97 9.536" stroke-width="1.2" stroke="#f00" stroke-miterlimit="10" fill="none"/><path d="M126.328 181.152h8v11h-8zm0 0" fill="#fff"/><use xlink:href="#b" x="126.328" y="189.815" fill="#f00"/><path d="M107.234 157.31l-13.546-14.673M93.688 142.637l-19.48 4.398M74.207 147.035L60.66 132.363M69.402 148.754l-10.84-11.734M68.277 166.102l5.93-19.067M60.66 132.363l-19.476 4.395M41.184 136.758l-5.934 19.07M45.074 140.063l-4.746 15.253M35.25 155.828L48.797 170.5M48.797 170.5l19.48-4.398M49.71 165.477l15.583-3.52" stroke-width="1.2" stroke="#000" stroke-miterlimit="10" fill="none"/><path d="M210.563 116.262l6.773 7.336" stroke-width="1.2" stroke="#f00" stroke-miterlimit="10" fill="none"/><path d="M217.336 123.598l6.773 7.336" stroke-width="1.2" stroke="#000" stroke-miterlimit="10" fill="none"/><path d="M206.563 110.762h8v11h-8zm0 0" fill="#fff"/><use xlink:href="#b" x="206.563" y="119.425" fill="#f00"/><path d="M224.11 130.934L218.175 150M228.004 134.234l-4.746 15.254M243.59 126.535l-19.48 4.4M218.176 150l13.547 14.672M231.723 164.672l19.48-4.4M232.637 159.648l15.586-3.515M251.203 160.273l5.934-19.066M251.203 160.273l6.774 7.336" stroke-width="1.2" stroke="#000" stroke-miterlimit="10" fill="none"/><path d="M257.977 167.61l6.773 7.335" stroke-width="1.2" stroke="#f00" stroke-miterlimit="10" fill="none"/><path d="M257.137 141.207l-13.547-14.672M252.328 142.93l-10.836-11.74" stroke-width="1.2" stroke="#000" stroke-miterlimit="10" fill="none"/><path d="M264.75 174.945l-2.965 9.535" stroke-width="1.2" stroke="#f00" stroke-miterlimit="10" fill="none"/><path d="M261.785 184.48l-2.97 9.536" stroke-width="1.2" stroke="#000" stroke-miterlimit="10" fill="none"/><path d="M260.75 169.445h8v11h-8zm0 0" fill="#fff"/><use xlink:href="#b" x="260.75" y="178.108" fill="#f00"/></g></svg>
